X:500
T:Bourre
M:3/8
O:France
R:Bourre
Z:Richard Robinson 
%%TUNEURL: http://www.leeds.ac.uk/music/Info/RRTuneBk/gettune/00000b41.html
%%ID:00000b41
K:C
e3def| g6| fga2g2| e2d2c2| e3def| g6| agf2e2| d6:|
|: e3def| e2c4| ded2c2| Bcd2d2| e3def| e2d4| ded2B2| c6:|
